img/svg/profile-icons/lock-ico.svg

<svg width="22" height="22" viewBox="0 0 22 22" fill="none" xmlns="http://www.w3.org/2000/svg">
<path d="M15.8984 15.7266C16.3731 15.7266 16.7578 15.3418 16.7578 14.8672C16.7578 14.3926 16.3731 14.0078 15.8984 14.0078C15.4238 14.0078 15.0391 14.3926 15.0391 14.8672C15.0391 15.3418 15.4238 15.7266 15.8984 15.7266Z" fill="#4C51CC"/>
<path d="M19.7656 15.5547C20.2403 15.5547 20.625 15.1699 20.625 14.6953V11.5156C20.625 9.62019 19.0829 8.07812 17.1875 8.07812H16.1547V5.04737C16.1547 2.26424 13.8416 0 10.9984 0C8.15525 0 5.84216 2.26424 5.84216 5.04737V8.07812H4.8125C2.91706 8.07812 1.375 9.62019 1.375 11.5156V18.5625C1.375 20.4579 2.91706 22 4.8125 22H17.1875C19.0829 22 20.625 20.4579 20.625 18.5625C20.625 18.0879 20.2403 17.7031 19.7656 17.7031C19.291 17.7031 18.9062 18.0879 18.9062 18.5625C18.9062 19.5102 18.1352 20.2812 17.1875 20.2812H4.8125C3.86478 20.2812 3.09375 19.5102 3.09375 18.5625V11.5156C3.09375 10.5679 3.86478 9.79688 4.8125 9.79688H17.1875C18.1352 9.79688 18.9062 10.5679 18.9062 11.5156V14.6953C18.9062 15.1699 19.291 15.5547 19.7656 15.5547ZM14.4359 8.07812H7.56091V5.04737C7.56091 3.21196 9.10297 1.71875 10.9984 1.71875C12.8938 1.71875 14.4359 3.21196 14.4359 5.04737V8.07812Z" fill="#4C51CC"/>
<path d="M9.41016 15.7266C9.88478 15.7266 10.2695 15.3418 10.2695 14.8672C10.2695 14.3926 9.88478 14.0078 9.41016 14.0078C8.93554 14.0078 8.55078 14.3926 8.55078 14.8672C8.55078 15.3418 8.93554 15.7266 9.41016 15.7266Z" fill="#4C51CC"/>
<path d="M6.1875 15.7266C6.66212 15.7266 7.04688 15.3418 7.04688 14.8672C7.04688 14.3926 6.66212 14.0078 6.1875 14.0078C5.71288 14.0078 5.32812 14.3926 5.32812 14.8672C5.32812 15.3418 5.71288 15.7266 6.1875 15.7266Z" fill="#4C51CC"/>
<path d="M12.6328 15.7266C13.1074 15.7266 13.4922 15.3418 13.4922 14.8672C13.4922 14.3926 13.1074 14.0078 12.6328 14.0078C12.1582 14.0078 11.7734 14.3926 11.7734 14.8672C11.7734 15.3418 12.1582 15.7266 12.6328 15.7266Z" fill="#4C51CC"/>
</svg>

<svg width="22" height="22" fill="none" xmlns="http://www.w3.org/2000/svg"><path d="M15.898 15.727a.86.86 0 100-1.72.86.86 0 000 1.72z" fill="#4C51CC"/><path d="M19.766 15.555a.86.86 0 00.859-.86v-3.18a3.441 3.441 0 00-3.438-3.437h-1.032v-3.03C16.155 2.263 13.842 0 10.998 0 8.155 0 5.842 2.264 5.842 5.047v3.031h-1.03a3.441 3.441 0 00-3.437 3.438v7.046A3.441 3.441 0 004.813 22h12.375a3.441 3.441 0 003.437-3.438.86.86 0 10-1.719 0 1.72 1.72 0 01-1.718 1.72H4.813a1.72 1.72 0 01-1.72-1.72v-7.046a1.72 1.72 0 011.72-1.72h12.375a1.72 1.72 0 011.718 1.72v3.18a.86.86 0 00.86.859zm-5.33-7.477H7.56v-3.03c0-1.836 1.542-3.33 3.437-3.33 1.896 0 3.438 1.494 3.438 3.33v3.03z" fill="#4C51CC"/><path d="M9.41 15.727a.86.86 0 100-1.72.86.86 0 000 1.72zm-3.222 0a.86.86 0 100-1.72.86.86 0 000 1.72zm6.445 0a.86.86 0 100-1.72.86.86 0 000 1.72z" fill="#4C51CC"/></svg>
